static/assets/images/tokens/lbtc.svg

<svg width="256" height="256" viewBox="0 0 256 256" fill="none" xmlns="http://www.w3.org/2000/svg">
<path d="M128 256C198.934 256 256 198.934 256 128C256 57.0662 198.934 0 128 0C93.6909 0 62.626 13.3503 39.6935 35.1629L100.675 35L117.872 35.0579L117.779 62.8114L131.628 62.858L131.72 35.1045L149.048 35.1629L148.954 63.4412C171.361 65.6162 189.059 72.5651 190.96 93.108C192.321 108.138 186.056 117.302 175.964 122.222C192.524 126.247 202.861 136.124 200.72 158.162C198.07 185.546 177.634 192.694 148.355 194.367L149.048 223L130.899 222.915L130.994 194.539L117.145 194.492L117.05 223L99.7228 222.942L42.0156 222.992C64.7024 243.526 94.8355 256 128 256Z" fill="#152E2E"/>
<path fill-rule="evenodd" clip-rule="evenodd" d="M99.7228 222.942L42.0156 222.992C16.1789 199.607 0 165.769 0 128C0 91.3753 15.2132 58.4476 39.6935 35.1629L100.675 35L100.581 63.4752L65.4337 63.3568L65.3721 81.892C65.3721 81.892 78.1716 81.7054 77.9739 81.9344C80.2824 81.6884 82.5964 82.3478 84.4282 83.7737C86.26 85.1997 87.4666 87.2807 87.7937 89.5784L87.5347 167.524C87.4827 168.334 87.2689 169.125 86.9057 169.851C86.5425 170.576 86.0375 171.222 85.4204 171.749C84.8149 172.286 84.1069 172.696 83.339 172.952C82.5712 173.209 81.7593 173.308 80.9523 173.243C81.1813 173.441 68.3505 173.201 68.3505 173.201L65 193.89L99.8189 194.007L99.7228 222.942ZM117.772 173.531L117.899 135.346C119.102 135.353 120.568 135.325 122.231 135.294L122.233 135.294C136.817 135.021 166.538 134.464 166.471 154.635C166.405 174.391 135.32 173.832 121.134 173.577L121.13 173.577C119.865 173.555 118.735 173.534 117.772 173.531ZM117.99 117.959L118.105 83.2505C119.085 83.2538 120.276 83.2269 121.626 83.1963C133.746 82.922 158.671 82.3579 158.609 100.807C158.55 118.8 132.827 118.257 120.94 118.006L120.937 118.006C119.822 117.983 118.829 117.962 117.99 117.959Z" fill="url(#paint0_linear_9890_1807)"/>
<path fill-rule="evenodd" clip-rule="evenodd" d="M190.96 93.108C189.059 72.5651 171.361 65.6162 148.954 63.4412L149.048 35.1629L131.72 35.1045L131.628 62.858L117.779 62.8114L117.872 35.0579L100.675 35L100.581 63.4752L65.4337 63.3568L65.3721 81.892C65.3721 81.892 78.1716 81.7054 77.9739 81.9344C80.2824 81.6884 82.5964 82.3478 84.4282 83.7737C86.26 85.1997 87.4666 87.2807 87.7937 89.5784L87.5347 167.524C87.4827 168.334 87.2689 169.125 86.9057 169.851C86.5425 170.576 86.0375 171.222 85.4204 171.749C84.8149 172.286 84.1069 172.696 83.339 172.952C82.5712 173.209 81.7593 173.308 80.9523 173.243C81.1813 173.441 68.3505 173.201 68.3505 173.201L65 193.89L99.8189 194.007L99.7228 222.942L117.05 223L117.145 194.492L130.994 194.539L130.899 222.915L149.048 223L148.355 194.367C177.634 192.694 198.07 185.546 200.72 158.162C202.861 136.124 192.524 126.247 175.964 122.222C186.056 117.302 192.321 108.138 190.96 93.108ZM117.899 135.346L117.772 173.531C118.735 173.534 119.865 173.555 121.13 173.577L121.134 173.577C135.32 173.832 166.405 174.391 166.471 154.635C166.538 134.464 136.817 135.021 122.233 135.294L122.231 135.294C120.568 135.325 119.102 135.353 117.899 135.346ZM118.105 83.2505L117.99 117.959C118.829 117.962 119.822 117.983 120.937 118.006L120.94 118.006C132.827 118.257 158.55 118.8 158.609 100.807C158.671 82.3579 133.746 82.922 121.626 83.1963C120.276 83.2269 119.085 83.2538 118.105 83.2505Z" fill="#C3FBF1"/>
<defs>
<linearGradient id="paint0_linear_9890_1807" x1="201.5" y1="128" x2="3.58877e-06" y2="128" gradientUnits="userSpaceOnUse">
<stop stop-color="#3CB19B"/>
<stop offset="1" stop-color="#305F58"/>
</linearGradient>
</defs>
</svg>

<svg xmlns="http://www.w3.org/2000/svg" fill="none" viewBox="0 0 256 256"><path fill="#152E2E" d="M128 256c70.934 0 128-57.066 128-128S198.934 0 128 0C93.69 0 62.626 13.35 39.694 35.163L100.675 35l17.197.058-.093 27.753 13.849.047.092-27.753 17.328.058-.094 28.278c22.407 2.175 40.105 9.124 42.006 29.667 1.361 15.03-4.904 24.194-14.996 29.114 16.56 4.025 26.897 13.902 24.756 35.94-2.65 27.384-23.086 34.532-52.365 36.205l.693 28.633-18.149-.085.095-28.376-13.849-.047L117.05 223l-17.327-.058-57.707.05C64.702 243.526 94.836 256 128 256"/><path fill="url(#paint0_linear_9890_1807)" fill-rule="evenodd" d="m99.723 222.942-57.707.05C16.179 199.607 0 165.769 0 128c0-36.625 15.213-69.552 39.694-92.837L100.675 35l-.094 28.475-35.147-.118-.062 18.535s12.8-.187 12.602.042a8.96 8.96 0 0 1 9.82 7.644l-.26 77.946a6.07 6.07 0 0 1-2.114 4.225 6 6 0 0 1-4.468 1.494c.23.198-12.602-.042-12.602-.042L65 193.89l34.819.117zm18.049-49.411.127-38.185c1.203.007 2.669-.021 4.332-.052h.002c14.584-.273 44.305-.83 44.238 19.341-.066 19.756-31.151 19.197-45.337 18.942h-.004c-1.265-.022-2.395-.043-3.358-.046m.218-55.572.115-34.708c.98.003 2.171-.024 3.521-.055 12.12-.274 37.045-.838 36.983 17.611-.059 17.993-25.782 17.45-37.669 17.199h-.003c-1.115-.023-2.108-.044-2.947-.047" clip-rule="evenodd"/><path fill="#C3FBF1" fill-rule="evenodd" d="M190.96 93.108c-1.901-20.543-19.599-27.492-42.006-29.667l.094-28.278-17.328-.058-.092 27.753-13.849-.047.093-27.753L100.675 35l-.094 28.475-35.147-.118-.062 18.535s12.8-.187 12.602.042a8.96 8.96 0 0 1 9.82 7.644l-.26 77.946a6.07 6.07 0 0 1-2.114 4.225 6 6 0 0 1-4.468 1.494c.23.198-12.602-.042-12.602-.042L65 193.89l34.819.117-.096 28.935 17.327.058.095-28.508 13.849.047-.095 28.376 18.149.085-.693-28.633c29.279-1.673 49.715-8.821 52.365-36.205 2.141-22.038-8.196-31.915-24.756-35.94 10.092-4.92 16.357-14.084 14.996-29.114m-73.061 42.238-.127 38.185c.963.003 2.093.024 3.358.046h.004c14.186.255 45.271.814 45.337-18.942.067-20.171-29.654-19.614-44.238-19.341h-.002c-1.663.031-3.129.059-4.332.052m.206-52.095-.115 34.708c.839.003 1.832.024 2.947.047h.003c11.887.251 37.61.794 37.669-17.199.062-18.45-24.863-17.885-36.983-17.61-1.35.03-2.541.057-3.521.053" clip-rule="evenodd"/><defs><linearGradient id="paint0_linear_9890_1807" x1="201.5" x2="0" y1="128" y2="128" gradientUnits="userSpaceOnUse"><stop stop-color="#3CB19B"/><stop offset="1" stop-color="#305F58"/></linearGradient></defs></svg>
